symbols/web/space_dashboard/materialsymbolsrounded/space_dashboard_wght500_48px.svg

<svg xmlns="http://www.w3.org/2000/svg" height="48" width="48"><path d="M9.1 42.3q-1.35 0-2.375-1.025T5.7 38.9V9.1q0-1.4 1.025-2.4t2.375-1h29.8q1.4 0 2.4 1t1 2.4v29.8q0 1.35-1 2.375T38.9 42.3Zm0-3.4h13.4V9.1H9.1v29.8Zm16.4 0h13.4V23.95H25.5V38.9Zm0-17.95h13.4V9.1H25.5v11.85Z"/></svg>

<svg xmlns="http://www.w3.org/2000/svg" height="48" width="48"><path d="M9.1 42.3Q7.75 42.3 6.725 41.275Q5.7 40.25 5.7 38.9V9.1Q5.7 7.7 6.725 6.7Q7.75 5.7 9.1 5.7H38.9Q40.3 5.7 41.3 6.7Q42.3 7.7 42.3 9.1V38.9Q42.3 40.25 41.3 41.275Q40.3 42.3 38.9 42.3ZM9.1 38.9H22.5Q22.5 38.9 22.5 38.9Q22.5 38.9 22.5 38.9V9.1Q22.5 9.1 22.5 9.1Q22.5 9.1 22.5 9.1H9.1Q9.1 9.1 9.1 9.1Q9.1 9.1 9.1 9.1V38.9Q9.1 38.9 9.1 38.9Q9.1 38.9 9.1 38.9ZM25.5 38.9H38.9Q38.9 38.9 38.9 38.9Q38.9 38.9 38.9 38.9V23.95Q38.9 23.95 38.9 23.95Q38.9 23.95 38.9 23.95H25.5Q25.5 23.95 25.5 23.95Q25.5 23.95 25.5 23.95V38.9Q25.5 38.9 25.5 38.9Q25.5 38.9 25.5 38.9ZM25.5 20.95H38.9Q38.9 20.95 38.9 20.95Q38.9 20.95 38.9 20.95V9.1Q38.9 9.1 38.9 9.1Q38.9 9.1 38.9 9.1H25.5Q25.5 9.1 25.5 9.1Q25.5 9.1 25.5 9.1V20.95Q25.5 20.95 25.5 20.95Q25.5 20.95 25.5 20.95Z"/></svg>
